X:10628
T:Huldre og 'en Elland
T:Huldre-kve
C:anon., arr. Frank Nordberg
O:Norway
S:After Edvard Grieg
Z:Transcribed by Frank Nordberg - http://www.musicaviva.com
F:http://abc.musicaviva.com/tunes/norway/huldre-og-elland-dm/huldre-og-elland-dm-ddad1.abc
V:1 Program 1 25 up %Acoustic guitar
V:2 Program 1 25 merge down %Acoustic guitar
M:2/4
L:1/16
Q:1/4=50
K:Dm
V:1
f2ga f2ga|b2ga a2ga|f2ga f2ga|b2ga a4:|
V:2
[D,8D8A8]|[D,8D8A8]|[D,8D8A8]|[D,8D8A8]:|
%
V:1
|:f2A2 e2A2|defd e2A2|f2A2 e2A2|d4 d4:|
V:2
|:A2[D,6D6]|[D,8D8A8]|A2[D,6D6]|[D,8D8A8]:|
W:
W:
W:  From Musica Viva - http://www.musicaviva.com
W:  the Internet center for free sheet music downloads.
